brigadir/img/svg/catalog_specobuv.svg

<svg width="56" height="63" viewBox="0 0 56 63" fill="none" xmlns="http://www.w3.org/2000/svg">
<path fill-rule="evenodd" clip-rule="evenodd" d="M10.4981 51.4845C10.2877 48.1199 7.90903 45.7675 4.14853 45.1666C4.0649 47.0712 4.20518 48.8887 4.85801 50.6577C6.68633 51.299 8.49982 51.326 10.4981 51.4845ZM3.86123 53.8227C3.08633 54.8687 2.93999 56.059 2.98517 57.2204C3.19559 57.4186 3.28596 57.5771 3.406 57.6061C4.11683 57.7761 4.82901 57.9636 5.5513 58.0573C9.50739 58.5725 13.4271 58.8491 17.2442 57.1651C19.0948 56.3483 21.1059 56.287 23.0792 56.8359C24.4914 57.2291 25.8935 57.6655 27.2794 58.1443C30.1618 59.1411 33.1043 59.5154 36.1594 59.3677C41.3011 59.1188 46.3935 58.4552 51.486 57.7761C51.8259 57.7309 52.1476 57.5522 52.4322 57.4524C52.5617 55.3704 52.5239 55.241 51.2958 53.617C48.9806 53.909 46.5884 54.23 44.1923 54.5086C40.6914 54.9166 37.1865 55.2706 33.6533 55.2639C31.5788 55.2598 29.5569 54.9827 27.587 54.3319C26.3332 53.9171 25.0835 53.4888 23.8264 53.0862C22.015 52.5069 20.2325 52.4988 18.4561 53.2845C16.6858 54.0675 14.8035 54.3622 12.8747 54.3818C10.6707 54.4047 8.47352 54.3683 6.29113 53.9731C5.51556 53.8335 4.72178 53.5779 3.86123 53.8227ZM26.369 4.38443C24.5959 4.56517 20.797 5.84587 19.3861 6.7489C19.1197 8.9758 19.5102 11.2621 19.1548 13.5301C18.2437 13.9293 17.4148 13.8545 16.5671 13.6157C16.4241 12.8908 16.3007 12.2669 16.1807 11.6573C13.5343 11.8252 7.59746 12.9326 5.94853 13.5598C5.93571 13.7567 5.88783 13.9732 5.91481 14.1809C6.20885 16.4402 6.5737 18.6913 6.803 20.9574C7.19079 24.7725 7.30544 28.6011 6.58517 32.3886C6.18794 34.4786 5.55872 36.5227 5.07247 38.5972C4.82496 39.6527 4.4655 40.7 4.51136 41.8607C5.65718 42.3119 6.79086 42.645 7.81057 43.1913C8.835 43.7409 9.8574 44.3911 10.6768 45.2031C11.4955 46.0137 12.1727 47.0219 12.7061 48.0511C13.2342 49.0681 13.5033 50.2193 13.8944 51.3361C14.4407 51.299 14.8885 51.328 15.3053 51.2276C16.0168 51.0569 16.731 50.8587 17.4034 50.5761C19.8245 49.5584 22.2672 49.58 24.7329 50.3488C25.8551 50.6988 26.9618 51.0947 28.0786 51.4609C30.1207 52.1306 32.2154 52.5103 34.3661 52.4138C39.3615 52.1913 44.3305 51.6821 49.2699 50.8951C49.6813 50.8297 50.0792 50.684 50.5809 50.5491C50.5917 49.4141 50.6646 48.3896 50.5992 47.374C50.4474 44.996 49.1364 43.3909 46.8265 42.8055C45.9093 42.5729 44.9328 42.5857 43.996 42.415C42.6802 42.1756 41.7199 42.7543 40.8681 43.6452C39.9833 44.5718 39.3979 45.6576 39.1571 46.9208C39.0088 47.7024 38.8698 48.4861 38.7127 49.3493C38.1536 49.4013 37.6525 49.468 37.1494 49.4849C36.8722 49.4943 36.593 49.4201 36.2302 49.3729C35.721 46.4298 36.9646 44.0512 38.4436 41.7103C36.6166 40.9779 34.8895 40.3574 33.2257 39.5987C31.5383 38.8292 30.0371 37.7225 28.8744 36.2786C27.738 34.8671 26.7689 33.32 25.7337 31.8423C18.8156 33.3328 18.7927 33.3355 16.8483 32.8135C16.7573 32.0379 16.6123 31.2488 17.0277 30.3849C17.8053 30.2979 18.6126 30.25 19.403 30.1104C20.9191 29.8434 22.4304 29.5439 23.9337 29.2121C24.335 29.1238 24.6991 28.8702 25.1395 28.6645C25.0276 27.8168 25.2683 27.0007 24.6189 26.2798C22.073 26.7101 19.5986 27.458 16.8625 27.23C16.7789 26.2629 16.619 25.4321 16.9967 24.4845C17.5241 24.4333 18.0292 24.4144 18.5229 24.3314C20.2588 24.0394 21.9941 23.746 23.7199 23.4034C24.1239 23.3239 24.4894 23.0501 24.8698 22.8673C24.948 22.002 25.2184 21.2197 24.7295 20.3753C22.1418 20.8326 19.6019 21.5879 16.9832 21.2986C16.7013 19.7886 16.6959 19.7886 17.1194 18.6327C19.8387 18.3245 22.6233 18.17 25.0964 17.0033C25.963 11.488 26.5234 5.88161 26.369 4.38443ZM16.2987 8.31893C16.329 7.62226 16.412 6.96606 16.3762 6.31593C16.3 4.90844 16.9994 4.14164 18.2774 3.7316C20.4456 3.03628 22.599 2.29848 24.7605 1.5836C25.5974 1.3071 26.4384 1.04408 27.276 0.772963C28.7975 0.280644 30.0802 1.57416 29.8354 3.09091C29.4834 5.26655 29.155 7.44759 28.8872 9.6347C28.2519 14.8175 27.7387 20.0118 27.8365 25.2439C27.8554 26.269 27.9167 27.3063 28.0948 28.3138C28.8744 32.7258 31.4284 35.7391 35.5106 37.4831C38.5825 38.7948 41.8048 39.4503 45.1324 39.6688C46.1487 39.7356 47.186 39.882 48.1551 40.1801C51.258 41.135 53.6468 44.1038 53.4458 47.4826C53.4155 47.9951 53.4661 48.5131 53.4377 49.0263C53.3649 50.3724 53.5274 51.5958 54.3711 52.7693C55.2344 53.9704 55.5743 55.4392 55.6289 56.9384C55.7031 58.9981 54.8358 60.1237 52.8193 60.4757C51.3005 60.7414 49.7703 60.9492 48.2394 61.134C43.7903 61.6701 39.3446 62.2231 34.8524 62.2892C32.1001 62.3297 29.4402 61.9331 26.8451 61.0281C25.5974 60.5931 24.3444 60.1662 23.0738 59.8054C21.4121 59.3326 19.7119 59.2402 18.1021 59.9436C14.5412 61.5002 10.8184 61.548 7.05793 61.2277C5.59851 61.1043 4.14044 60.8601 2.70866 60.5472C0.661832 60.0981 -0.085414 59.0399 0.00765453 56.9202C0.0771187 55.359 0.390719 53.8368 1.20675 52.4954C1.70042 51.6835 1.84137 50.9193 1.65726 49.9934C0.927549 46.328 1.14876 42.6781 1.98502 39.0572C2.2993 37.6976 2.63448 36.34 3.02901 35.0026C3.84909 32.2267 4.1492 29.3935 4.15527 26.5098C4.16337 22.377 3.68791 18.2948 2.98652 14.2322C2.94943 14.015 2.87524 13.8046 2.8395 13.5874C2.53399 11.7557 3.03643 10.9356 4.82024 10.5816C7.19686 10.1095 9.58831 9.71428 11.9744 9.29008C13.0588 9.09652 14.148 8.9286 15.2291 8.71548C15.5744 8.64737 15.8994 8.47067 16.2987 8.31893Z" fill="#A5FF14"/>
</svg>

<svg width="56" height="63" fill="none" xmlns="http://www.w3.org/2000/svg"><path fill-rule="evenodd" clip-rule="evenodd" d="M10.498 51.484c-.21-3.364-2.589-5.717-6.35-6.317-.083 1.904.057 3.722.71 5.49 1.828.642 3.642.669 5.64.828zm-6.637 2.339c-.775 1.046-.921 2.236-.876 3.397.21.199.301.357.421.386.71.17 1.423.358 2.145.451 3.956.515 7.876.792 11.693-.892 1.85-.817 3.862-.878 5.835-.33 1.412.394 2.814.83 4.2 1.31 2.883.996 5.825 1.37 8.88 1.223 5.142-.25 10.235-.913 15.327-1.592.34-.045.662-.224.946-.324.13-2.082.092-2.211-1.136-3.835-2.315.292-4.708.613-7.104.892-3.5.408-7.005.762-10.539.755-2.074-.004-4.096-.281-6.066-.932-1.254-.415-2.503-.843-3.76-1.246-1.812-.58-3.595-.587-5.37.199-1.771.783-3.654 1.077-5.582 1.097-2.204.023-4.401-.014-6.584-.409-.775-.14-1.57-.395-2.43-.15zM26.37 4.384c-1.773.181-5.572 1.462-6.983 2.365-.266 2.227.124 4.513-.231 6.781-.911.4-1.74.325-2.588.086l-.386-1.959c-2.647.168-8.584 1.276-10.232 1.903-.013.197-.061.413-.034.62.294 2.26.659 4.511.888 6.777.388 3.816.502 7.644-.218 11.432-.397 2.09-1.026 4.134-1.513 6.208-.247 1.056-.607 2.103-.56 3.264 1.145.45 2.279.784 3.299 1.33 1.024.55 2.046 1.2 2.866 2.012.819.81 1.496 1.819 2.03 2.848.527 1.017.796 2.168 1.187 3.285.547-.037.995-.008 1.411-.108.712-.171 1.426-.37 2.098-.652 2.422-1.018 4.864-.996 7.33-.227 1.122.35 2.229.746 3.346 1.112 2.042.67 4.136 1.05 6.287.953 4.995-.223 9.965-.732 14.904-1.519.411-.065.81-.211 1.31-.346.012-1.135.085-2.16.02-3.175-.153-2.378-1.464-3.983-3.773-4.569-.918-.232-1.894-.22-2.831-.39-1.316-.24-2.276.34-3.128 1.23-.885.927-1.47 2.013-1.71 3.276-.15.781-.288 1.565-.445 2.428-.56.052-1.06.119-1.564.136-.277.01-.556-.065-.919-.112-.509-2.943.735-5.322 2.214-7.663-1.827-.732-3.555-1.353-5.218-2.111-1.688-.77-3.189-1.877-4.352-3.32-1.136-1.412-2.105-2.959-3.14-4.437-6.918 1.49-6.941 1.494-8.886.971-.09-.775-.236-1.564.18-2.428.777-.087 1.585-.135 2.375-.275a107.26 107.26 0 004.53-.898c.402-.088.766-.342 1.207-.547-.112-.848.128-1.664-.521-2.385-2.546.43-5.02 1.178-7.756.95-.084-.967-.244-1.798.134-2.745.527-.052 1.032-.07 1.526-.154 1.736-.292 3.471-.585 5.197-.928.404-.08.77-.353 1.15-.536.078-.865.348-1.647-.14-2.492-2.588.458-5.128 1.213-7.747.924-.282-1.51-.287-1.51.136-2.666 2.72-.308 5.504-.463 7.977-1.63.867-5.515 1.427-11.121 1.273-12.619zM16.299 8.32c.03-.697.113-1.353.077-2.003-.076-1.408.623-2.174 1.901-2.584 2.169-.696 4.322-1.434 6.483-2.148.837-.277 1.678-.54 2.516-.811 1.521-.492 2.804.801 2.56 2.318a171.52 171.52 0 00-.949 6.544c-.635 5.183-1.148 10.377-1.05 15.609.018 1.025.08 2.062.258 3.07.78 4.412 3.333 7.425 7.416 9.17 3.072 1.31 6.294 1.966 9.621 2.185 1.017.067 2.054.213 3.023.511 3.103.955 5.492 3.924 5.29 7.303-.03.512.021 1.03-.007 1.543-.073 1.346.09 2.57.933 3.743.863 1.201 1.203 2.67 1.258 4.17.074 2.06-.793 3.185-2.81 3.537a87.257 87.257 0 01-4.58.658c-4.449.536-8.894 1.09-13.387 1.155-2.752.04-5.412-.356-8.007-1.26-1.248-.436-2.5-.863-3.771-1.224-1.662-.472-3.362-.565-4.972.139-3.56 1.556-7.284 1.604-11.044 1.284a33.77 33.77 0 01-4.35-.68c-2.046-.45-2.793-1.508-2.7-3.628.07-1.561.383-3.083 1.199-4.425.493-.811.634-1.576.45-2.502-.73-3.665-.508-7.315.328-10.936a70.22 70.22 0 011.044-4.054c.82-2.776 1.12-5.61 1.126-8.493.008-4.133-.467-8.215-1.168-12.278-.038-.217-.112-.427-.147-.645-.306-1.831.196-2.651 1.98-3.005 2.377-.473 4.768-.868 7.154-1.292 1.085-.193 2.174-.361 3.255-.575.345-.068.67-.244 1.07-.396z" fill="#A5FF14"/></svg>
